app/images/customer-modal/third-modal/bid-outline.svg

<svg width="60" height="60" viewBox="0 0 60 60" fill="none" xmlns="http://www.w3.org/2000/svg">
<path d="M57 0H3C1.34315 0 0 1.34315 0 3V44C0 45.6569 1.34315 47 3 47H20V51C16.1358 51.0044 13.0044 54.1358 13 58C13 59.1046 13.8954 60 15 60H45C46.1046 60 47 59.1046 47 58C46.9956 54.1358 43.8642 51.0044 40 51V47H57C58.6569 47 60 45.6569 60 44V3C60 1.34315 58.6569 0 57 0ZM45 58H15C15.0033 55.2399 17.2399 53.0033 20 53H40C42.7598 53.0039 44.9961 55.2402 45 58ZM38 51H22V47H38V51ZM57 45H3C2.44772 45 2 44.5523 2 44V39H36C36.5523 39 37 38.5523 37 38C37 37.4477 36.5523 37 36 37H2V3C2 2.44772 2.44772 2 3 2H57C57.5523 2 58 2.44772 58 3V37H56C55.4477 37 55 37.4477 55 38C55 38.5523 55.4477 39 56 39H58V44C58 44.5523 57.5523 45 57 45Z" fill="#303030"/>
<path d="M34.332 20.0557L31.332 18.3697L21.632 8.66967L19.912 5.60967C19.52 5.00355 18.878 4.60391 18.161 4.51967C17.5682 4.452 16.9764 4.65429 16.549 5.07067L9.54904 12.0707C9.13078 12.4969 8.92817 13.0896 8.99804 13.6827C9.08941 14.421 9.51143 15.0778 10.145 15.4677L13.145 17.1537L15.168 19.1767L6.17404 28.1767C4.61191 29.7388 4.61191 32.2715 6.17404 33.8337C7.73618 35.3958 10.2689 35.3958 11.831 33.8337L20.825 24.8387L22.849 26.8627L24.569 29.9227C24.9607 30.5287 25.6024 30.9284 26.319 31.0127C26.394 31.0197 26.467 31.0237 26.54 31.0237C27.0601 31.0285 27.5607 30.8259 27.931 30.4607L34.931 23.4607C35.3494 23.0349 35.552 22.4424 35.482 21.8497C35.3923 21.1076 34.9689 20.447 34.332 20.0557ZM26.478 21.9997L23.649 24.8287L15.164 16.3427L20.821 10.6857L29.306 19.1707L26.478 21.9997ZM10.957 13.4827L17.919 6.50567H17.935C18.0377 6.51348 18.1323 6.56388 18.196 6.64467L19.578 9.09967L13.578 15.0997L11.173 13.7527C11.0777 13.6841 11.003 13.5907 10.957 13.4827ZM10.413 32.4127C9.63184 33.1939 8.36525 33.1939 7.58404 32.4127C6.80284 31.6315 6.80284 30.3649 7.58404 29.5837L16.578 20.5837L19.407 23.4127L10.413 32.4127ZM26.551 29.0127C26.4422 29.0124 26.3398 28.9613 26.274 28.8747L24.892 26.4137L27.892 23.4137L30.892 20.4137L33.292 21.7607C33.3881 21.8309 33.4638 21.9255 33.511 22.0347L26.551 29.0127Z" fill="#303030"/>
<path d="M48.856 33.2001L49.8 32.4461C50.3456 32.009 50.6233 31.3188 50.5326 30.6256C50.4418 29.9325 49.9957 29.337 49.356 29.0551L38.808 24.4001C38.0995 24.0881 37.2746 24.213 36.6902 24.7208C36.1059 25.2286 35.867 26.028 36.077 26.7731L39.091 37.4501C39.273 38.0954 39.7662 38.6065 40.4046 38.8114C41.0429 39.0163 41.7415 38.8878 42.265 38.4691L44.153 36.9581L48.009 41.3231C48.374 41.7375 48.8941 41.9825 49.446 42.0001H49.507C50.0376 41.9993 50.5463 41.7886 50.922 41.4141L52.337 40.0001C53.0792 39.2536 53.1181 38.0603 52.426 37.2671L48.856 33.2001ZM49.508 40.0001L45.022 34.9211C44.669 34.5214 44.0645 34.4691 43.648 34.8021L41.016 36.9081L38 26.2311L48.549 30.8811L46.79 32.2881C46.5768 32.4586 46.4424 32.7088 46.4183 32.9808C46.3941 33.2527 46.4822 33.5227 46.662 33.7281L50.921 38.5861L49.508 40.0001Z" fill="#303030"/>
<path d="M39 21C39.5523 21 40 20.5523 40 20V17C40 16.4477 39.5523 16 39 16C38.4477 16 38 16.4477 38 17V20C38 20.5523 38.4477 21 39 21Z" fill="#303030"/>
<path d="M43.7071 22.7069L46.2071 20.2069C46.5861 19.8145 46.5807 19.1908 46.1949 18.8051C45.8092 18.4194 45.1855 18.4139 44.7931 18.7929L42.2931 21.2929C42.0331 21.544 41.9289 21.9158 42.0204 22.2654C42.1119 22.6151 42.385 22.8881 42.7346 22.9796C43.0842 23.0711 43.456 22.9669 43.7071 22.7069Z" fill="#303030"/>
<path d="M30 7H32C32.5523 7 33 6.55228 33 6C33 5.44772 32.5523 5 32 5H30C29.4477 5 29 5.44772 29 6C29 6.55228 29.4477 7 30 7Z" fill="#303030"/>
<path d="M54 5H36C35.4477 5 35 5.44772 35 6C35 6.55228 35.4477 7 36 7H54C54.5523 7 55 6.55228 55 6C55 5.44772 54.5523 5 54 5Z" fill="#303030"/>
<path d="M32 41H28C27.4477 41 27 41.4477 27 42C27 42.5523 27.4477 43 28 43H32C32.5523 43 33 42.5523 33 42C33 41.4477 32.5523 41 32 41Z" fill="#303030"/>
</svg>

<svg width="60" height="60" fill="none" xmlns="http://www.w3.org/2000/svg"><path d="M57 0H3a3 3 0 00-3 3v41a3 3 0 003 3h17v4a7.008 7.008 0 00-7 7 2 2 0 002 2h30a2 2 0 002-2 7.008 7.008 0 00-7-7v-4h17a3 3 0 003-3V3a3 3 0 00-3-3zM45 58H15a5.006 5.006 0 015-5h20a5.007 5.007 0 015 5zm-7-7H22v-4h16v4zm19-6H3a1 1 0 01-1-1v-5h34a1 1 0 100-2H2V3a1 1 0 011-1h54a1 1 0 011 1v34h-2a1 1 0 100 2h2v5a1 1 0 01-1 1z" fill="#303030"/><path d="M34.332 20.056l-3-1.686-9.7-9.7-1.72-3.06a2.422 2.422 0 00-1.751-1.09 1.987 1.987 0 00-1.612.55l-7 7a1.972 1.972 0 00-.551 1.613 2.45 2.45 0 001.147 1.785l3 1.686 2.023 2.023-8.994 9a4 4 0 005.657 5.657l8.994-8.995 2.024 2.024 1.72 3.06a2.42 2.42 0 001.75 1.09c.075.007.148.01.221.01.52.006 1.02-.197 1.391-.562l7-7a1.969 1.969 0 00.551-1.611 2.45 2.45 0 00-1.15-1.794zM26.478 22l-2.829 2.829-8.485-8.486 5.657-5.657 8.485 8.485L26.478 22zm-15.521-8.517l6.962-6.977h.016a.368.368 0 01.261.139L19.578 9.1l-6 6-2.405-1.347a.643.643 0 01-.216-.27zm-.544 18.93a2 2 0 11-2.829-2.83l8.994-9 2.829 2.83-8.994 9zm16.138-3.4a.35.35 0 01-.277-.138l-1.382-2.461 3-3 3-3 2.4 1.347c.096.07.172.165.219.274l-6.96 6.978zM48.856 33.2l.944-.754a2 2 0 00-.444-3.39L38.808 24.4a2 2 0 00-2.731 2.373l3.014 10.677a2 2 0 003.174 1.02l1.888-1.512 3.856 4.365a2 2 0 001.437.677h.061c.53 0 1.04-.211 1.415-.586L52.337 40c.742-.746.781-1.94.089-2.733l-3.57-4.067zm.652 6.8l-4.486-5.079a1 1 0 00-1.374-.119l-2.632 2.106L38 26.231l10.549 4.65-1.759 1.407a1 1 0 00-.128 1.44l4.259 4.858L49.508 40zM39 21a1 1 0 001-1v-3a1 1 0 10-2 0v3a1 1 0 001 1zM43.707 22.707l2.5-2.5a1 1 0 00-1.414-1.414l-2.5 2.5a1 1 0 101.414 1.414zM30 7h2a1 1 0 100-2h-2a1 1 0 100 2zM54 5H36a1 1 0 100 2h18a1 1 0 100-2zM32 41h-4a1 1 0 100 2h4a1 1 0 100-2z" fill="#303030"/></svg>
